X: 378
U:~=!turn!
M:2/4
L:1/8
K:D phrygian
"Slowly"Dz/E/ (G/F/).E/.D/ | Bz/F/ (G/F/).E/.D/ | Dz/E/ (G/F/).E/.D/ | BDFd | Dz/E/ (G/F/).E/.D/ |
(B/c/)(d/e/) f>B | dBd<b | (B/c/)(d/e/) f>B | d>B (g/f/)(e/d/) | (c/d/)(e/f/) gc | eceg | (B/c/)(d/e/) g>B |
dBfd | (B/c/d/e/) fb | (ab) (fb) | (3gbg (3fbf | (3ege (3dfd | c/d/e/f/ g>f | e/d/c/B/ A/G/F/E/ |]


